frontend/src/assets/icons/icon-button.svg

<?xml version="1.0" encoding="UTF-8"?><!DOCTYPE svg PUBLIC"-//W3C//DTD SVG 1.1//EN""http://www.w3.org/Graphics/SVG/1.1/DTD/svg11.dtd"><svg xmlns="http://www.w3.org/2000/svg" xmlns:xlink="http://www.w3.org/1999/xlink"><defs><rect id="path-1" x="0" y="0" width="24" height="24"/><path d="M15.502 9.491 14.708 9.491 14.432 9.765C15.407 10.902 16 12.376 16 13.991 16 17.581 13.09 20.491 9.5 20.491 5.91 20.491 3 17.581 3 13.991 3 10.401 5.91 7.491 9.5 7.491 11.115 7.491 12.588 8.083 13.725 9.057L14.001 8.783 14.001 7.991 18.999 3 20.49 4.491 15.502 9.491 15.502 9.491ZM9.5 9.491C7.014 9.491 5 11.505 5 13.991 5 16.476 7.014 18.491 9.5 18.491 11.985 18.491 14 16.476 14 13.991 14 11.505 11.985 9.491 9.5 9.491L9.5 9.491Z" id="path-1"/></defs><symbol id="baseline-filter_list-24px" viewBox="0 0 24 24"><g id="Icons" stroke="none" stroke-width="1" fill="none" fill-rule="evenodd"><g id="Icon-/Text-Button" transform="translate(-358.000000, -346.000000)"><g id="Filtern" transform="translate(358.000000, 340.000000)"><g id="baseline-filter_list-24px-copy" transform="translate(0.000000, 6.000000)"><path d="M10 18 14 18 14 16 10 16 10 18ZM3 6 3 8 21 8 21 6 3 6ZM6 13 18 13 18 11 6 11 6 13Z" id="Shape" fill="#000000" fill-rule="nonzero"/><polygon id="Path" points="0 0 24 0 24 24 0 24"/></g></g></g></g></symbol><symbol id="baseline-import_export-24px" viewBox="0 0 24 24"><g id="Icons" stroke="none" stroke-width="1" fill="none" fill-rule="evenodd"><g id="Icon-/Text-Button" transform="translate(-358.000000, -185.000000)"><g id="Datensatz-Import" transform="translate(358.000000, 180.000000)"><g id="baseline-import_export-24px-copy" transform="translate(0.000000, 5.000000)"><path d="M9 3 5 6.99 8 6.99 8 14 10 14 10 6.99 13 6.99 9 3ZM16 17.01 16 10 14 10 14 17.01 11 17.01 15 21 19 17.01 16 17.01Z" id="Shape" fill="#000000" fill-rule="nonzero"/><polygon id="Path" points="0 0 24 0 24 24 0 24"/></g></g></g></g></symbol><symbol id="Exportieren" viewBox="0 0 24 24"><g id="Icons" stroke="none" stroke-width="1" fill="none" fill-rule="evenodd"><g id="Icon-/Text-Button" transform="translate(-358.000000, -746.000000)"><g id="Exportieren" transform="translate(358.000000, 740.000000)"><g id="Icon-Export-Copy" transform="translate(0.000000, 6.000000)"><mask id="mask-2" fill="white"><use xlink:href="#path-1"/></mask><g id="Rectangle-Copy-16"/><rect id="Rectangle-Copy-7" fill="#000000" mask="url(#mask-2)" x="11" y="7" width="2" height="10"/><polygon id="Triangle" fill="#000000" mask="url(#mask-2)" points="12.0023199 5 17 10 7 10"/><rect id="Rectangle-Copy-8" fill="#000000" mask="url(#mask-2)" x="4" y="19" width="16" height="2"/></g></g></g></g></symbol><symbol id="Infolayer-gross" viewBox="0 0 24 24"><g id="Icons" stroke="none" stroke-width="1" fill="none" fill-rule="evenodd"><g id="Icon-/Text-Button" transform="translate(-358.000000, -586.000000)"><g id="Layer-vergr&#xF6;&#xDF;ern" transform="translate(358.000000, 580.000000)"><g id="baseline-photo_size_select_small-24px-copy" transform="translate(0.000000, 6.000000)"><path d="M0 0 24 0 24 24 0 24 0 0ZM24 24 0 24 0 0 24 0 24 24Z" id="Shape"/><path d="M21 15 19 15 19 17 21 17 21 15ZM21 11 19 11 19 13 21 13 21 11ZM21 19 19 19 19 21C20 21 21 20 21 19ZM17 3 15 3 15 5 17 5 17 3ZM21 7 19 7 19 9 21 9 21 7ZM19 3 19 5 21 5C21 4 20 3 19 3ZM5 21 13 21 13 15 3 15 3 19C3 20.1 3.9 21 5 21ZM5 7 3 7 3 9 5 9 5 7ZM17 19 15 19 15 21 17 21 17 19ZM5 3C4 3 3 4 3 5L5 5 5 3ZM5 11 3 11 3 13 5 13 5 11ZM13 3 11 3 11 5 13 5 13 3ZM9 3 7 3 7 5 9 5 9 3Z" id="Shape" fill="#000000" fill-rule="nonzero"/></g></g></g></g></symbol><symbol id="outline-person_add-24px" viewBox="0 0 24 24"><g id="Icons" stroke="none" stroke-width="1" fill="none" fill-rule="evenodd"><g id="Icon-/Text-Button" transform="translate(-358.000000, -265.000000)"><g id="Neue-Adresse" transform="translate(358.000000, 260.000000)"><g id="outline-person_add-24px-copy" transform="translate(0.000000, 5.000000)"><polygon id="Path" points="0 0 24 0 24 24 0 24"/><path d="M15 11C17.21 11 19 9.21 19 7 19 4.79 17.21 3 15 3 12.79 3 11 4.79 11 7 11 9.21 12.79 11 15 11ZM15 5C16.1 5 17 5.9 17 7 17 8.1 16.1 9 15 9 13.9 9 13 8.1 13 7 13 5.9 13.9 5 15 5ZM15 13C12.33 13 7 14.34 7 17L7 19 23 19 23 17C23 14.34 17.67 13 15 13ZM9 17C9.22 16.28 12.31 15 15 15 17.7 15 20.8 16.29 21 17L9 17ZM6 14 6 11 9 11 9 9 6 9 6 6 4 6 4 9 1 9 1 11 4 11 4 14 6 14Z" id="Shape" fill="#000000" fill-rule="nonzero"/></g></g></g></g></symbol><symbol id="outline-playlist_add-24px" viewBox="0 0 24 24"><g id="Icons" stroke="none" stroke-width="1" fill="none" fill-rule="evenodd"><g id="Icon-/Text-Button" transform="translate(-358.000000, -387.000000)"><g id="Alle-&#xF6;ffnen" transform="translate(358.000000, 380.000000)"><g id="outline-playlist_add-24px-copy-2" transform="translate(0.000000, 7.000000)"><polygon id="Path" points="0 0 24 0 24 24 0 24"/><path d="M14 10 2 10 2 12 14 12 14 10ZM14 6 2 6 2 8 14 8 14 6ZM18 14 18 10 16 10 16 14 12 14 12 16 16 16 16 20 18 20 18 16 22 16 22 14 18 14ZM2 16 10 16 10 14 2 14 2 16Z" id="Shape" fill="#000000" fill-rule="nonzero"/></g></g></g></g></symbol><symbol id="search-24px" viewBox="0 0 24 24"><g id="Icons" stroke="none" stroke-width="1" fill="none" fill-rule="evenodd"><g id="Icon-/Text-Button" transform="translate(-358.000000, -667.000000)"><g id="Suchen" transform="translate(358.000000, 660.000000)"><rect id="Rectangle" x="0" y="7" width="24" height="24"/><g id="Icon-/-Search-/-Outlined" transform="translate(0.000000, 7.000000)"><mask id="mask-2" fill="white"><use xlink:href="#path-1"/></mask><g id="Mask" transform="translate(11.745000, 11.745500) scale(1, -1) translate(-11.745000, -11.745500) "/><g id="&#x2731;-/-Color-/-Icons-/-Black-/-Active" mask="url(#mask-2)" fill="#000000" fill-opacity="0.87" fill-rule="evenodd"><rect id="Rectangle-13" x="0" y="0" width="24" height="24"/></g></g></g></g></g></symbol><symbol id="Segment-kuerzen" viewBox="0 0 24 24"><g id="Icons" stroke="none" stroke-width="1" fill="none" fill-rule="evenodd"><g id="Icon-/Text-Button" transform="translate(-356.000000, -427.000000)"><g id="Alle-schlie&#xDF;en" transform="translate(356.000000, 420.000000)"><g id="outline-playlist_add-24px-copy-3" transform="translate(0.000000, 7.000000)"><polygon id="Path" points="0 0 24 0 24 24 0 24"/><polygon id="Path-Copy" fill="#000000" fill-rule="nonzero" points="12 10 8 14.0050063 11 14.0050063 11 20 13 20 13 14.0050063 16 14.0050063"/><path d="M10.001 8.999 8 11 3 11 3 9 10.001 8.999ZM21 9 21 11 16 11 13.999 8.999 21 9Z" id="Shape" fill="#000000" fill-rule="nonzero"/><polygon id="Path" fill="#000000" fill-rule="nonzero" points="21 5 3 5 3 7 21 7"/></g></g></g></g></symbol><symbol id="cursor-edit" viewBox="0 0 24 24" version="1.1" xmlns="http://www.w3.org/2000/svg" xmlns:xlink="http://www.w3.org/1999/xlink"><g id="Icons" stroke="none" stroke-width="1" fill="none" fill-rule="evenodd"><g id="Funktionsicons" transform="translate(-407.000000, -1228.000000)"><g id="Symbol" transform="translate(402.000000, 107.000000)"><g id="baseline-edit-24px" transform="translate(5.000000, 1121.000000)"><path d="M2,17.831412 L2,21.9975 L6.16608804,21.9975 L18.4532704,9.71031766 L14.2871823,5.54422962 L2,17.831412 Z M21.6750451,6.48854291 C22.1083183,6.05526975 22.1083183,5.35536696 21.6750451,4.92209381 L19.0754062,2.32245487 C18.642133,1.88918171 17.9422302,1.88918171 17.5089571,2.32245487 L15.4759061,4.35550583 L19.6419942,8.52159388 L21.6750451,6.48854291 Z" id="Shape" fill="#000000" fill-rule="nonzero"></path><polygon id="Path" points="0 0 24 0 24 24 0 24"></polygon></g></g></g></g></symbol></svg>

<?xml version="1.0" encoding="UTF-8"?><!DOCTYPE svg PUBLIC"-//W3C//DTD SVG 1.1//EN""http://www.w3.org/Graphics/SVG/1.1/DTD/svg11.dtd"><svg xmlns="http://www.w3.org/2000/svg"><symbol id="baseline-filter_list-24px" viewBox="0 0 24 24"><g fill="none" fill-rule="evenodd"><path d="M10 18h4v-2h-4v2zM3 6v2h18V6H3zm3 7h12v-2H6v2z" fill="#000" fill-rule="nonzero"/><path d="M0 0h24v24H0z"/></g></symbol><symbol id="baseline-import_export-24px" viewBox="0 0 24 24"><g fill="none" fill-rule="evenodd"><path d="M9 3L5 6.99h3V14h2V6.99h3L9 3zm7 14.01V10h-2v7.01h-3L15 21l4-3.99h-3z" fill="#000" fill-rule="nonzero"/><path d="M0 0h24v24H0z"/></g></symbol><symbol id="Exportieren" viewBox="0 0 24 24"><g fill="none" fill-rule="evenodd"><mask id="a" fill="#fff"><path d="M0 0h24v24H0z"/></mask><path fill="#000" mask="url(#a)" d="M11 7h2v10h-2z"/><path fill="#000" mask="url(#a)" d="M12.002 5L17 10H7zM4 19h16v2H4z"/></g></symbol><symbol id="Infolayer-gross" viewBox="0 0 24 24"><g fill="none" fill-rule="evenodd"><path d="M0 0h24v24H0V0zm24 24H0V0h24v24z"/><path d="M21 15h-2v2h2v-2zm0-4h-2v2h2v-2zm0 8h-2v2c1 0 2-1 2-2zM17 3h-2v2h2V3zm4 4h-2v2h2V7zm-2-4v2h2c0-1-1-2-2-2zM5 21h8v-6H3v4c0 1.1.9 2 2 2zM5 7H3v2h2V7zm12 12h-2v2h2v-2zM5 3C4 3 3 4 3 5h2V3zm0 8H3v2h2v-2zm8-8h-2v2h2V3zM9 3H7v2h2V3z" fill="#000" fill-rule="nonzero"/></g></symbol><symbol id="outline-person_add-24px" viewBox="0 0 24 24"><g fill="none" fill-rule="evenodd"><path d="M0 0h24v24H0z"/><path d="M15 11c2.21 0 4-1.79 4-4s-1.79-4-4-4-4 1.79-4 4 1.79 4 4 4zm0-6c1.1 0 2 .9 2 2s-.9 2-2 2-2-.9-2-2 .9-2 2-2zm0 8c-2.67 0-8 1.34-8 4v2h16v-2c0-2.66-5.33-4-8-4zm-6 4c.22-.72 3.31-2 6-2 2.7 0 5.8 1.29 6 2H9zm-3-3v-3h3V9H6V6H4v3H1v2h3v3h2z" fill="#000" fill-rule="nonzero"/></g></symbol><symbol id="outline-playlist_add-24px" viewBox="0 0 24 24"><g fill="none" fill-rule="evenodd"><polygon points="0 0 24 0 24 24 0 24"/><path d="M14 10 2 10 2 12 14 12 14 10ZM14 6 2 6 2 8 14 8 14 6ZM18 14 18 10 16 10 16 14 12 14 12 16 16 16 16 20 18 20 18 16 22 16 22 14 18 14ZM2 16 10 16 10 14 2 14 2 16Z" id="Shape" fill="#000000" fill-rule="nonzero"/></g></symbol><symbol id="search-24px" viewBox="0 0 24 24"><g fill="none" fill-rule="evenodd"><path d="M0 0h24v24H0z"/><g><mask id="a" fill="#fff"><path d="M0 0h24v24H0z"/></mask><g mask="url(#a)" fill="#000" fill-opacity=".87"><path d="M0 0h24v24H0z"/></g></g></g></symbol><symbol id="Segment-kuerzen" viewBox="0 0 24 24"><g fill="none" fill-rule="evenodd"><path d="M0 0h24v24H0z"/><path fill="#000" fill-rule="nonzero" d="M12 10l-4 4.005h3V20h2v-5.995h3zM10.001 8.999L8 11H3V9l7.001-.001zM21 9v2h-5l-2.001-2.001L21 9zM21 5H3v2h18z"/></g></symbol><symbol id="cursor-edit" viewBox="0 0 24 24" xmlns="http://www.w3.org/2000/svg"><g fill="none" fill-rule="evenodd"><path d="M2 17.831v4.166h4.166L18.453 9.71l-4.166-4.166L2 17.831zM21.675 6.49a1.106 1.106 0 000-1.567l-2.6-2.6a1.106 1.106 0 00-1.566 0l-2.033 2.034 4.166 4.166 2.033-2.033z" fill="#000" fill-rule="nonzero"/><path d="M0 0h24v24H0z"/></g></symbol></svg>
